src/assets/outline/ClipboardImport.svg

<svg width="24" height="24" viewBox="0 0 24 24"  xmlns="http://www.w3.org/2000/svg">
<path d="M14 6.75H10C9.04 6.75 7.25 6.75 7.25 4C7.25 1.25 9.04 1.25 10 1.25H14C14.96 1.25 16.75 1.25 16.75 4C16.75 4.96 16.75 6.75 14 6.75ZM10 2.75C9.01 2.75 8.75 2.75 8.75 4C8.75 5.25 9.01 5.25 10 5.25H14C15.25 5.25 15.25 4.99 15.25 4C15.25 2.75 14.99 2.75 14 2.75H10Z" />
<path d="M14 22.7502H9C3.38 22.7502 2.25 20.1702 2.25 16.0002V10.0002C2.25 5.44021 3.9 3.49021 7.96 3.28021C8.36 3.26021 8.73 3.57021 8.75 3.99021C8.77 4.41021 8.45 4.75021 8.04 4.77021C5.2 4.93021 3.75 5.78021 3.75 10.0002V16.0002C3.75 19.7002 4.48 21.2502 9 21.2502H14C14.41 21.2502 14.75 21.5902 14.75 22.0002C14.75 22.4102 14.41 22.7502 14 22.7502Z" />
<path d="M20.9999 15.7504C20.5899 15.7504 20.2499 15.4104 20.2499 15.0004V10.0004C20.2499 5.78042 18.7999 4.93042 15.9599 4.77042C15.5499 4.75042 15.2299 4.39042 15.2499 3.98042C15.2699 3.57042 15.6399 3.25042 16.0399 3.27042C20.0999 3.49042 21.7499 5.44042 21.7499 9.99042V14.9904C21.7499 15.4104 21.4099 15.7504 20.9999 15.7504Z" />
<path d="M21 22.75H18C17.59 22.75 17.25 22.41 17.25 22C17.25 21.59 17.59 21.25 18 21.25H20.25V19C20.25 18.59 20.59 18.25 21 18.25C21.41 18.25 21.75 18.59 21.75 19V22C21.75 22.41 21.41 22.75 21 22.75Z" />
<path d="M20.9599 22.7104C20.7699 22.7104 20.5799 22.6404 20.4299 22.4904L14.4699 16.5304C14.1799 16.2404 14.1799 15.7604 14.4699 15.4704C14.7599 15.1804 15.2399 15.1804 15.5299 15.4704L21.4899 21.4304C21.7799 21.7204 21.7799 22.2004 21.4899 22.4904C21.3399 22.6304 21.1499 22.7104 20.9599 22.7104Z" />
</svg>

<?xml version="1.0" encoding="UTF-8"?>
<svg width="24" height="24" viewBox="0 0 24 24" xmlns="http://www.w3.org/2000/svg">
 <path d="m14 6.75h-4c-0.96 0-2.75 0-2.75-2.75s1.79-2.75 2.75-2.75h4c0.96 0 2.75 0 2.75 2.75 0 0.96 0 2.75-2.75 2.75zm-4-4c-0.99 0-1.25 0-1.25 1.25s0.26 1.25 1.25 1.25h4c1.25 0 1.25-0.26 1.25-1.25 0-1.25-0.26-1.25-1.25-1.25h-4z"/>
 <path d="m14 22.75h-5c-5.62 0-6.75-2.58-6.75-6.75v-6c0-4.56 1.65-6.51 5.71-6.72 0.4-0.02 0.77 0.29 0.79 0.71s-0.3 0.76-0.71 0.78c-2.84 0.16-4.29 1.01-4.29 5.23v6c0 3.7 0.73 5.25 5.25 5.25h5c0.41 0 0.75 0.34 0.75 0.75s-0.34 0.75-0.75 0.75z"/>
 <path d="m21 15.75c-0.41 0-0.75-0.34-0.75-0.75v-5c0-4.22-1.45-5.07-4.29-5.23-0.41-0.02-0.73-0.38-0.71-0.79s0.39-0.73 0.79-0.71c4.06 0.22 5.71 2.17 5.71 6.72v5c0 0.42-0.34 0.76-0.75 0.76z"/>
 <path d="m21 22.75h-3c-0.41 0-0.75-0.34-0.75-0.75s0.34-0.75 0.75-0.75h2.25v-2.25c0-0.41 0.34-0.75 0.75-0.75s0.75 0.34 0.75 0.75v3c0 0.41-0.34 0.75-0.75 0.75z"/>
 <path d="m20.96 22.71c-0.19 0-0.38-0.07-0.53-0.22l-5.96-5.96c-0.29-0.29-0.29-0.77 0-1.06s0.77-0.29 1.06 0l5.96 5.96c0.29 0.29 0.29 0.77 0 1.06-0.15 0.14-0.34 0.22-0.53 0.22z"/>
</svg>
